symbols/web/format_quote/materialsymbolsoutlined/format_quote_wght200gradN25_24px.svg

<svg xmlns="http://www.w3.org/2000/svg" height="24" width="24"><path d="M14.475 11.525h4.075V7.45h-4.075Zm-9 0H9.55V7.45H5.475Zm11 4.925 1.825-4h-4.75V6.525h5.925V12.5l-1.8 3.95Zm-9 0 1.825-4H4.55V6.525h5.925V12.5l-1.8 3.95ZM7.5 9.5Zm9 0Z"/></svg>

<svg xmlns="http://www.w3.org/2000/svg" height="24" width="24"><path d="M14.475 11.525H18.55V7.45H14.475ZM5.475 11.525H9.55V7.45H5.475ZM16.475 16.45 18.3 12.45H13.55V6.525H19.475V12.5L17.675 16.45ZM7.475 16.45 9.3 12.45H4.55V6.525H10.475V12.5L8.675 16.45ZM7.5 9.5ZM16.5 9.5Z"/></svg>
